X:1
T:26.  Title
T:Hugo Distler
T:From Latin Gloria in excelsis, Nicolaus Decius (1485-1546)
T:26.  Unto God on High Be Praise Allein Gott in der Höh sei Ehr Trinity Sunday
T:Bärenreiter
T:Bärenreiter
T:Bärenreiter
T:Bärenreiter
T:Bärenreiter
C:Hugo Distler
Z:From Latin Gloria in excelsis,
Z:Nicolaus Decius
Z:(1485-1546)
Z:Bärenreiter
%%score [ 1 2 3 ]
L:1/8
Q:1/4=120
M:6/4
K:A
V:1 treble nm="Sop."
V:2 treble nm="Alto"
V:3 bass nm="Bar."
V:1
 A2 c2 d2- | d2 d2 e2 (d3 c B2) |[M:4/4] c2 c2 c3 B |[M:6/4] (d2 c3 B) A2 B4 | A6 A2 c2 d2- | %5
w: 1. Un- to God|_ on high be _ _|praise and thanks for|all _ _ His mer-|cies which ev- er-|
w: |||||
 d2 d2 e2 (d3 c) B2 |[M:4/4] c2 c2 c3 B |[M:6/4] (d2 c3 B) A2 B4 |[M:3/4] A6 |[M:4/4] z2 A2 B2 c2 | %10
w: * more, in ma- * ny|ways, from harm and|wrong _ _ pro- tect|us.|Good will our|
w: |||||
 d4 c4 |[M:6/4] B2 ^A2 !breath!B2 B2 c2 d2 | e6 d2 c2 B2 |[M:4/4] !breath!c4 =A4 | %14
w: God has|shown toward us, and now un-|ceas- ing peace has|come, an|
w: ||||
[M:6/4] B4 d2 (c3 B) A2 | B6 A6 ||[M:3/4] A2 c2 d2 |[M:6/4] e2 e4 (d4 B2) | (c2 c2) B2 d2 c2 B2 | %19
w: end to all _ our|war- ring.|2. O Je- sus|Christ, on- ly _|Son of God our heav'n- ly|
w: ||*3. O Ho- ly|Ghost, God's great- est|gift, _ Source of health and|
 (A6 GF G4) | A6 A2 c2 d2 | (e2 e3) e (d3 c) B2 | c2 c2 B2 d2 c2 B2 | (A6 GF G4) | %24
w: Fa- * * *|ther, the re- con-|cil- er of those who are|lost, who has si- lenced our|quar- * * *|
w: com- * * *|fort, pro- tect us|from _ the de- * vil's|pow'r, whom Je- sus Christ re-|deem- * * *|
[M:3/4] !breath!A4 A2 |[M:6/4] B4 c2 (d3 c) B2 |[M:4/4] c2 c2 !breath!B2 B2 | d2 d2 (e d2) d | %28
w: rels. O|Lamb be- lov- * ed,|Lord and God, re-|ceive the prayers _ of|
w: eth through|mar- tyr- dom _ and|bit- ter death; take|from us mis- * er-|
[M:6/4] (d3 c B2) B2 c4 | z2 A2 B2 c2 (d2 c2- |[M:4/4] cB A2) A2 (F2- | F2 A2) A4 |] %32
w: need- * * ful hearts,|have mer- cy on _|_ _ _ Thy child-|* * ren!|
w: ry _ _ and need;|in You our souls _|_ _ _ have trust-|* * ed.|
V:2
 E2 E2 (A2- | A=G) F2 GA B2 B2 B2- |[M:4/4] !breath!BA (^G3 F E2) |[M:6/4] (FG) A2 A2 (A4 G2) | %4
w: 1. Un- to God|_ _ on high be praise and thanks|_ for all _ _|for _ all His mer- *|
 A6 E2 E2 (A2- | A=G F2) GA B2 B2 B2- |[M:4/4] !breath!BA (^G3 F E2) |[M:6/4] (FG) A2 A2 (A4 G2) | %8
w: cies which ev- er-|* * * more, in ma- ny ways,|_ from harm _ _|and _ wrong pro- tect _|
[M:3/4] A6 |[M:4/4] z2 E2 F2 =G2 | F2 (B3 A) ^G2- |[M:6/4] G2 F2 !breath!F2 G3 A B2 | c2 d2 B6 B2 | %13
w: us.|Good will our|God has _ shown|_ toward us, and now un-|ceas- ing peace has|
[M:4/4] !breath!^A4 F4 |[M:6/4] D4 =G2 E4 A2 | (F3 ^GAB) c6 ||[M:3/4] z6 |[M:6/4] z12 | z12 | z12 | %20
w: come, an|end to all our|war- * * * ring.|||||
 z12 | z12 | z12 | z12 |[M:3/4] z6 |[M:6/4] z12 |[M:4/4] z8 | z8 |[M:6/4] z12 | z12 |[M:4/4] z8 | %31
w: |||||||||||
 z8 |] %32
w: |
V:3
 z6 | z2 D,2 D,2 =G,4 G,2 |[M:4/4] F,2 E,2 !breath!A,3 ^G, |[M:6/4] F,3 F,E,D, E,6 | A,6 z6 | %5
w: |1. Un- to God on|high be praise and|thanks for all His mer-|cies|
 z2 D,2 D,2 =G,4 G,G, |[M:4/4] F,2 E,2 !breath!A,3 ^G, |[M:6/4] F,3 F,E,D, E,6 | %8
w: which ev- er- more, in|ma- ny ways, from|harm and wrong pro- tect|
[M:3/4] !breath!A,4 A,2 |[M:4/4] B,2 B,2 E,4 | D,4 E,4- |[M:6/4] E,2 F,2 !breath!B,,4 B,4 | %12
w: us. Good|will our God|has shown|_ toward us, and|
 A,2 A,2 E,2 F,2 C2 C2 |[M:4/4] !breath!F,4 D4 |[M:6/4] (=G,3 A,) B,2 A,4 A,2 | E,6 A,6 || %16
w: now un- ceas- ing peace has|come, an|end _ to all our|war- ring.|
[M:3/4] z6 |[M:6/4] z12 | z12 | z12 | z12 | z12 | z12 | z12 |[M:3/4] z6 |[M:6/4] z12 |[M:4/4] z8 | %27
w: |||||||||||
 z8 |[M:6/4] z12 | z12 |[M:4/4] z8 | z8 |] %32
w: |||||

